movekom_app/assets/icons/play.svg

<svg height="51" viewBox="0 0 67.445 51" width="67.445" xmlns="http://www.w3.org/2000/svg"><path d="m55.881 17.522a4.19 4.19 0 1 1 -8.372 0 4.19 4.19 0 1 1 8.372 0zm-4.181-8.332a8.168 8.168 0 0 0 -8 8.334 8 8 0 1 0 15.983 0 8.168 8.168 0 0 0 -7.983-8.334zm13.437-6.69h-26.884a3.887 3.887 0 0 0 -3.8 3.969v14.555h5.083a3.889 3.889 0 0 1 3.805 3.963v5.864a10.959 10.959 0 0 1 12.409-3.085 11.945 11.945 0 0 1 0 21.943 10.959 10.959 0 0 1 -12.412-3.086v1.908a3.89 3.89 0 0 1 -3.805 3.969h25.607a3.89 3.89 0 0 0 3.805-3.969v-42.062a3.89 3.89 0 0 0 -3.805-3.969zm-21.8 44.112v-15.76a10.959 10.959 0 0 1 12.413-3.086 11.945 11.945 0 0 1 0 21.943 10.959 10.959 0 0 1 -12.412-3.086zm1.789-7.887a15.213 15.213 0 1 1 -.005.011zm6.574 6.869a6.864 6.864 0 1 0 -6.576-6.858 6.721 6.721 0 0 0 6.576 6.858zm-17.25-24.57h-28.145a3.889 3.889 0 0 0 -3.805 3.964v23.543a3.89 3.89 0 0 0 3.805 3.969h36.261m-9.711-15.742-19.869-10.627v21.257z" fill="none" stroke="#fff" stroke-linecap="round" stroke-linejoin="round" transform="translate(-2 -2)"/></svg>

<svg xmlns="http://www.w3.org/2000/svg" width="67.445" height="51" viewBox="0 0 67.445 51">
    <g id="prefix__Capa_2" data-name="Capa 2" transform="translate(.5 .5)">
        <g id="prefix__Capa_2-2" data-name="Capa 2">
            <path id="prefix__Trazado_621" d="M55.881 17.522a4.19 4.19 0 1 1-8.372 0 4.19 4.19 0 1 1 8.372 0zM51.7 9.19a8.168 8.168 0 0 0-8 8.334 8 8 0 1 0 15.983 0A8.168 8.168 0 0 0 51.7 9.19zM65.137 2.5H38.253a3.887 3.887 0 0 0-3.8 3.969v14.555h5.083a3.889 3.889 0 0 1 3.805 3.963v5.864a10.959 10.959 0 0 1 12.409-3.085 11.945 11.945 0 0 1 0 21.943 10.959 10.959 0 0 1-12.412-3.086v1.908a3.89 3.89 0 0 1-3.805 3.969H65.14a3.89 3.89 0 0 0 3.805-3.969V6.469A3.89 3.89 0 0 0 65.14 2.5zm-21.8 44.112v-15.76a10.959 10.959 0 0 1 12.413-3.086 11.945 11.945 0 0 1 0 21.943 10.959 10.959 0 0 1-12.412-3.086zm1.789-7.887a15.213 15.213 0 1 1-.005.011zm6.574 6.869a6.864 6.864 0 1 0-6.576-6.858 6.721 6.721 0 0 0 6.576 6.858zm-17.25-24.57H6.305A3.889 3.889 0 0 0 2.5 24.988v23.543A3.89 3.89 0 0 0 6.305 52.5h36.261m-9.711-15.742L12.986 26.131v21.257z" data-name="Trazado 621" transform="translate(-2.5 -2.5)" style="fill:none;stroke:#fff;stroke-linecap:round;stroke-linejoin:round"/>
        </g>
    </g>
</svg>
